<?xml version="1.0" encoding="UTF-8"?>
<map version="1.10" tiledversion="1.12.2" orientation="orthogonal" renderorder="right-down" width="45" height="26" tilewidth="64" tileheight="64" infinite="0" backgroundcolor="#a95f2f" nextlayerid="10" nextobjectid="412">
 <properties>
  <property name="cameraMode" value="two_axis_scrolling"/>
  <property name="designHeight" type="int" value="1664"/>
  <property name="designWidth" type="int" value="2880"/>
  <property name="playerHeight" type="int" value="184"/>
  <property name="playerWidth" type="int" value="160"/>
 </properties>
 <tileset firstgid="1" source="tilesets/oath_courtyard_ground.tsx"/>
 <tileset firstgid="257" source="tilesets/oath_courtyard_decals.tsx"/>
 <tileset firstgid="263" source="tilesets/oath_courtyard_objects.tsx"/>
 <layer id="1" name="Ground tiles" width="45" height="26" locked="1">
  <properties>
   <property name="role" value="ground"/>
  </properties>
  <data encoding="csv">
1,2,3,4,5,6,7,8,9,10,11,12,13,14,15,16,1,2,3,4,5,6,7,8,9,10,11,12,13,14,15,16,1,2,3,4,5,6,7,8,9,10,11,12,13,
17,18,19,20,21,22,23,24,25,26,27,28,29,30,31,32,17,18,19,20,21,22,23,24,25,26,27,28,29,30,31,32,17,18,19,20,21,22,23,24,25,26,27,28,29,
33,34,35,36,37,38,39,40,41,42,43,44,45,46,47,48,33,34,35,36,37,38,39,40,41,42,43,44,45,46,47,48,33,34,35,36,37,38,39,40,41,42,43,44,45,
49,50,51,52,53,54,55,56,57,58,59,60,61,62,63,64,49,50,51,52,53,54,55,56,57,58,59,60,61,62,63,64,49,50,51,52,53,54,55,56,57,58,59,60,61,
65,66,67,68,69,70,71,72,73,74,75,76,77,78,79,80,65,66,67,68,69,70,71,72,73,74,75,76,77,78,79,80,65,66,67,68,69,70,71,72,73,74,75,76,77,
81,82,83,84,85,86,87,88,89,90,91,92,93,94,95,96,81,82,83,84,85,86,87,88,89,90,91,92,93,94,95,96,81,82,83,84,85,86,87,88,89,90,91,92,93,
97,98,99,100,101,102,103,104,105,106,107,108,109,110,111,112,97,98,99,100,101,102,103,104,105,106,107,108,109,110,111,112,97,98,99,100,101,102,103,104,105,106,107,108,109,
113,114,115,116,117,118,119,120,121,122,123,124,125,126,127,128,113,114,115,116,117,118,119,120,121,122,123,124,125,126,127,128,113,114,115,116,117,118,119,120,121,122,123,124,125,
129,130,131,132,133,134,135,136,137,138,139,140,141,142,143,144,129,130,131,132,133,134,135,136,137,138,139,140,141,142,143,144,129,130,131,132,133,134,135,136,137,138,139,140,141,
145,146,147,148,149,150,151,152,153,154,155,156,157,158,159,160,145,146,147,148,149,150,151,152,153,154,155,156,157,158,159,160,145,146,147,148,149,150,151,152,153,154,155,156,157,
161,162,163,164,165,166,167,168,169,170,171,172,173,174,175,176,161,162,163,164,165,166,167,168,169,170,171,172,173,174,175,176,161,162,163,164,165,166,167,168,169,170,171,172,173,
177,178,179,180,181,182,183,184,185,186,187,188,189,190,191,192,177,178,179,180,181,182,183,184,185,186,187,188,189,190,191,192,177,178,179,180,181,182,183,184,185,186,187,188,189,
193,194,195,196,197,198,199,200,201,202,203,204,205,206,207,208,193,194,195,196,197,198,199,200,201,202,203,204,205,206,207,208,193,194,195,196,197,198,199,200,201,202,203,204,205,
209,210,211,212,213,214,215,216,217,218,219,220,221,222,223,224,209,210,211,212,213,214,215,216,217,218,219,220,221,222,223,224,209,210,211,212,213,214,215,216,217,218,219,220,221,
225,226,227,228,229,230,231,232,233,234,235,236,237,238,239,240,225,226,227,228,229,230,231,232,233,234,235,236,237,238,239,240,225,226,227,228,229,230,231,232,233,234,235,236,237,
241,242,243,244,245,246,247,248,249,250,251,252,253,254,255,256,241,242,243,244,245,246,247,248,249,250,251,252,253,254,255,256,241,242,243,244,245,246,247,248,249,250,251,252,253,
1,2,3,4,5,6,7,8,9,10,11,12,13,14,15,16,1,2,3,4,5,6,7,8,9,10,11,12,13,14,15,16,1,2,3,4,5,6,7,8,9,10,11,12,13,
17,18,19,20,21,22,23,24,25,26,27,28,29,30,31,32,17,18,19,20,21,22,23,24,25,26,27,28,29,30,31,32,17,18,19,20,21,22,23,24,25,26,27,28,29,
33,34,35,36,37,38,39,40,41,42,43,44,45,46,47,48,33,34,35,36,37,38,39,40,41,42,43,44,45,46,47,48,33,34,35,36,37,38,39,40,41,42,43,44,45,
49,50,51,52,53,54,55,56,57,58,59,60,61,62,63,64,49,50,51,52,53,54,55,56,57,58,59,60,61,62,63,64,49,50,51,52,53,54,55,56,57,58,59,60,61,
65,66,67,68,69,70,71,72,73,74,75,76,77,78,79,80,65,66,67,68,69,70,71,72,73,74,75,76,77,78,79,80,65,66,67,68,69,70,71,72,73,74,75,76,77,
81,82,83,84,85,86,87,88,89,90,91,92,93,94,95,96,81,82,83,84,85,86,87,88,89,90,91,92,93,94,95,96,81,82,83,84,85,86,87,88,89,90,91,92,93,
97,98,99,100,101,102,103,104,105,106,107,108,109,110,111,112,97,98,99,100,101,102,103,104,105,106,107,108,109,110,111,112,97,98,99,100,101,102,103,104,105,106,107,108,109,
113,114,115,116,117,118,119,120,121,122,123,124,125,126,127,128,113,114,115,116,117,118,119,120,121,122,123,124,125,126,127,128,113,114,115,116,117,118,119,120,121,122,123,124,125,
129,130,131,132,133,134,135,136,137,138,139,140,141,142,143,144,129,130,131,132,133,134,135,136,137,138,139,140,141,142,143,144,129,130,131,132,133,134,135,136,137,138,139,140,141,
145,146,147,148,149,150,151,152,153,154,155,156,157,158,159,160,145,146,147,148,149,150,151,152,153,154,155,156,157,158,159,160,145,146,147,148,149,150,151,152,153,154,155,156,157
</data>
 </layer>
 <objectgroup id="2" name="Ground decals">
  <object id="1" name="Flagstones west" type="CourtyardAsset" gid="258" x="420" y="720" width="640" height="288" rotation="-10"/>
  <object id="2" name="Flagstones east" type="CourtyardAsset" gid="2147483906" x="2460" y="750" width="640" height="288" rotation="8"/>
  <object id="3" name="Pebble scatter" type="CourtyardAsset" gid="259" x="1480" y="1430" width="320" height="224"/>
  <object id="4" name="Dust scuff" type="CourtyardAsset" gid="260" x="1180" y="880" width="384" height="224" rotation="15"/>
 </objectgroup>
 <imagelayer id="3" name="Arena ring image overlay" opacity="0.44" offsetx="800" offsety="390">
  <image source="image_layers/arena_ring_overlay_1280x896.png" width="1280" height="896"/>
  <properties>
   <property name="role" value="image_overlay"/>
  </properties>
 </imagelayer>
 <objectgroup id="4" name="Reusable props">
  <object id="100" name="Northwest ruined wall" type="CourtyardAsset" gid="263" x="72" y="410" width="832" height="320"/>
  <object id="101" name="Oath monument" type="CourtyardAsset" gid="264" x="2380" y="420" width="360" height="384"/>
  <object id="102" name="Southwest rock cluster" type="CourtyardAsset" gid="268" x="100" y="1510" width="256" height="160"/>
  <object id="103" name="Southeast rock cluster" type="CourtyardAsset" gid="2147483916" x="2360" y="1510" width="256" height="160"/>
  <object id="104" name="West boulder" type="CourtyardAsset" gid="269" x="30" y="920" width="160" height="176"/>
  <object id="105" name="East boulder" type="CourtyardAsset" gid="2147483917" x="2723.33" y="892" width="160" height="176"/>
  <object id="106" name="Southwest shrub" type="CourtyardAsset" gid="271" x="35" y="1390" width="184" height="136"/>
  <object id="107" name="Southeast shrub" type="CourtyardAsset" gid="2147483919" x="2520" y="1580" width="184" height="136"/>
  <object id="108" name="North wall shrub" type="CourtyardAsset" gid="270" x="610" y="405" width="128" height="104"/>
  <object id="109" name="Monument shrub" type="CourtyardAsset" gid="2147483918" x="2610" y="420" width="128" height="104"/>
  <object id="110" name="Southwest grass" type="CourtyardAsset" gid="273" x="210" y="1605" width="224" height="120"/>
  <object id="111" name="Southeast grass" type="CourtyardAsset" gid="2147483921" x="2290" y="1600" width="224" height="120"/>
  <object id="112" name="North grass" type="CourtyardAsset" gid="272" x="1060" y="150" width="112" height="104"/>
  <object id="113" name="Northeast grass" type="CourtyardAsset" gid="2147483920" x="2050" y="180" width="112" height="104"/>
  <object id="114" name="West grass" type="CourtyardAsset" gid="272" x="20" y="780" width="112" height="104"/>
  <object id="115" name="East grass" type="CourtyardAsset" gid="2147483920" x="2740" y="760" width="112" height="104"/>
 </objectgroup>
 <objectgroup color="#ff3b30" draworder="index" id="5" name="Collision">
  <object id="300" name="Northwest wall collision" type="Collider" x="125" y="330" width="700" height="55"/>
  <object id="301" name="Monument collision" type="Collider" x="2450" y="360" width="220" height="55"/>
  <object id="302" name="Southwest rocks collision" type="Collider" x="130" y="1460" width="210" height="50">
   <ellipse/>
  </object>
  <object id="303" name="Southeast rocks collision" type="Collider" x="2390" y="1460" width="210" height="50">
   <ellipse/>
  </object>
  <object id="403" name="West boulder collision" type="Collider" x="35" y="859" width="163" height="61">
   <ellipse/>
  </object>
  <object id="408" x="2717.33" y="832" width="160.667" height="61.3333">
   <ellipse/>
  </object>
 </objectgroup>
 <objectgroup id="9" name="Initial position" class="Initial position">
  <object id="411" name="boss_1" type="Initial position" x="2344" y="768">
   <point/>
  </object>
 </objectgroup>
 <objectgroup color="#32d74b" draworder="index" id="6" name="Gameplay points" visible="0">
  <object id="350" name="Player spawn" type="PlayerSpawn" x="1440" y="1020">
   <point/>
  </object>
  <object id="351" name="Enemy spawn west" type="EnemySpawn" x="980" y="760">
   <point/>
  </object>
  <object id="352" name="Enemy spawn east" type="EnemySpawn" x="1940" y="760">
   <point/>
  </object>
  <object id="353" name="Camera bounds" type="CameraBounds" x="64" y="64" width="2752" height="1536"/>
 </objectgroup>
 <imagelayer id="7" name="Warm light" opacity="0.22">
  <image source="image_layers/warm_light_overlay_2880x1664.png" width="2880" height="1664"/>
  <properties>
   <property name="role" value="lighting"/>
  </properties>
 </imagelayer>
 <imagelayer id="8" name="Edge vignette" opacity="0.35">
  <image source="image_layers/edge_vignette_overlay_2880x1664.png" width="2880" height="1664"/>
  <properties>
   <property name="role" value="lighting"/>
  </properties>
 </imagelayer>
</map>
